X:1
T:Title
%%score { ( 1 3 ) | ( 2 4 ) }
L:1/8
M:4/2
K:Ab
V:1 treble nm="Grand Piano"
V:3 treble 
V:2 bass 
V:4 bass 
V:1
 z8 z4 z2[Q:1/4=116] [CE]2 | [CE]4 [Ec]2 [CEA]2 [Ec]4 [EB]2 [EA]2 | B4 A2 B2 [Ec]6 [EA]2 | %3
 F4 F2 A2 E4 [EA]2 [Ec]2 |[M:7/4] [EB]4 [=DB]2 [FB]2 [EB]6 |[M:1/4] [DE]2 | %6
[M:8/4] [CE]4 [Ec]2 [CA]2 [Ec]4 [EB]2 [EA]2 | z8 z4 z2 B2[K:bass] | %8
 [Ee]4 [Ec]2 [Fc]2 [Fd]4 [DF]2 [FB]2 |[M:7/4] A4 c3 B [CA]6 |[M:1/4] [Ec]2 | %11
[M:8/4] d4 d2 c2 B4 c2 d2 | e4 [Ec]2 [Ee]2 d6 d2 | d4 c2 [EB]2 [Ee]4 [Ec]2 [CFA]2 | %14
[M:7/4] E2- [EB]2 [=DA]2 [DF]2 E6 |[M:1/4] E2 |[M:8/4] [CE]4 [Ec]2 [CA]2 [Ec]4 [EB]2 [EA]2 | %17
 z8 z4 z2 B2[K:bass] | [Ee]4 [Ec]2 [Fc]2 [Fd]4 [DF]2 [FB]2 |[M:11/4] A4 c3 B [CA]6 z2 z2 z4 |] %20
V:2
 z8 z4 z2 [A,,A,]2 | [A,,A,]4 [A,,A,]2 A,,2 [A,,A,]4 [B,,G,]2 [C,A,]2 | %2
 [E,G,D]4 [E,F,E]2 [E,G,E]2 [A,,A,]6 [C,A,]2 | [D,A,D]4 [D,A,D]2 [F,A,D]2 [A,C]4 [C,A,]2 [A,,A,]2 | %4
[M:7/4] [B,,G,]4 [B,,F,]2 [B,,A,]2 [E,G,]6 |[M:1/4] [E,G,]2 | %6
[M:8/4] [A,,A,]4 [A,,A,]2 [A,,F,]2 [A,,A,]4 [B,,G,]2 [C,A,]2 | %7
 [E,G,E]4 [E,G,E]2 [E,A,E]2 [E,B,E]6 .[E,G,E]2 | %8
 [C,A,]4 [F,=A,]2 [F,A,]2 [B,,B,]4 [B,,B,]2 [D,B,]2 |[M:7/4] [E,CE]4 [E,A,E]3 [E,G,D] [A,,A,]6 | %10
[M:1/4] [A,,A,]2 |[M:8/4] [E,B,E]4 [E,B,E]2 [E,A,E]2 [E,G,E]4 [E,A,E]2 [E,B,E]2 | %12
 [A,CE]4 [A,,A,]2 [C,A,]2 [E,B,E]6 [E,B,E]2 | [E,B,E]4 [E,A,E]2 [D,G,]2 [C,A,]4 [A,,A,]2 A,,2 | %14
[M:7/4] z2 G,2 [B,,F,]2 [B,,A,]2 [E,G,]6 |[M:1/4] [E,G,D]2 | %16
[M:8/4] [A,,A,]4 [A,,A,]2 [A,,F,]2 [A,,A,]4 [B,,G,]2 [C,A,]2 | %17
 [E,G,E]4 [E,G,E]2 [E,A,E]2 [E,B,E]6 .[E,G,E]2 | %18
 [C,A,]4 [F,=A,]2 [F,A,]2 [B,,B,]4 [B,,B,]2 [D,B,]2 | %19
[M:11/4] [E,CE]4 [E,A,E]3 [E,G,D] [A,,A,]6 z2 z2 z4 |] %20
V:3
 x16 | x16 | x16 | x16 |[M:7/4] x14 |[M:1/4] x2 |[M:8/4] x16 | B4 B2 c2 d6 z[K:bass] D, | x16 | %9
[M:7/4] x14 |[M:1/4] x2 |[M:8/4] x16 | x16 | x16 |[M:7/4] [B,G]2 z2 z2 z2 z2 z4 |[M:1/4] x2 | %16
[M:8/4] x16 | B4 B2 c2 d6 z[K:bass] D, | x16 |[M:11/4] x22 |] %20
V:4
 x16 | x16 | x16 | x16 |[M:7/4] x14 |[M:1/4] x2 |[M:8/4] x16 | x16 | x16 |[M:7/4] x14 |[M:1/4] x2 | %11
[M:8/4] x16 | x16 | x16 |[M:7/4] B,,4 z2 z2 z2 z4 |[M:1/4] x2 |[M:8/4] x16 | x16 | x16 | %19
[M:11/4] x22 |] %20

